images/icons/antenna.svg

<svg width="70" height="70" viewBox="0 0 70 70" fill="none" xmlns="http://www.w3.org/2000/svg">
<path d="M66.974 48.3385L48.5045 29.7337L50.5543 19.6373C51.0833 19.8438 51.6456 19.9517 52.2133 19.9558H52.2273C54.8354 19.9866 56.9747 17.8974 57.0056 15.2893C57.0365 12.6812 54.9471 10.542 52.339 10.5111C49.731 10.4803 47.5917 12.5695 47.5608 15.1776C47.5543 15.7357 47.6466 16.2905 47.8337 16.8163L36.9837 18.1405L19.2853 0.35C19.0682 0.128479 18.7719 0.00247917 18.4617 0C18.1554 0.00160417 17.8621 0.123521 17.645 0.3395L14.3363 3.6295C13.8809 4.08508 13.8809 4.82358 14.3363 5.27917L16.1167 7.08517C9.21933 19.7681 11.4596 35.4741 21.628 45.7228C21.7213 45.8121 21.8295 45.8843 21.9477 45.9363C21.8742 46.3311 21.8358 46.7317 21.8333 47.1333V60.6667H7.83333C4.61333 60.6705 2.00379 63.28 2 66.5V68.8333C2 69.4776 2.52237 70 3.16667 70H56.8333C57.4776 70 58 69.4776 58 68.8333V66.5C57.9962 63.28 55.3867 60.6705 52.1667 60.6667H38.1667V54.6688C40.3599 55.1288 42.5945 55.3633 44.8353 55.3688C50.2125 55.363 55.5041 54.0225 60.2353 51.4675L62.025 53.2677C62.2421 53.4892 62.5385 53.6152 62.8487 53.6177C63.1549 53.6161 63.4482 53.4941 63.6653 53.2782L66.974 49.9882C67.4294 49.5326 67.4294 48.7941 66.974 48.3385ZM50.5823 13.6348C51.496 12.726 52.9734 12.7301 53.8821 13.6437C54.7909 14.5574 54.7869 16.0348 53.8732 16.9435C53.4359 17.3785 52.8441 17.6226 52.2272 17.6225H52.2202C50.9316 17.6158 49.8923 16.5658 49.899 15.2771C49.9022 14.6602 50.1495 14.0699 50.5869 13.6348H50.5823ZM47.836 21.301L46.527 27.7445L43.9557 25.158L47.836 21.301ZM46.5107 19.3282L42.3107 23.5037L39.0615 20.237L46.5107 19.3282ZM52.1667 63C54.0997 63 55.6667 64.567 55.6667 66.5V67.6667H4.33333V66.5C4.33333 64.567 5.90031 63 7.83333 63H52.1667ZM35.8333 58.3333V60.6667H24.1667V58.3333H35.8333ZM24.1667 56V47.1333C24.1667 44.303 26.7835 42 30 42C33.2165 42 35.8333 44.303 35.8333 47.1333V56H24.1667ZM38.1667 52.29V47.1333C38.1667 43.0162 34.5033 39.6667 30 39.6667C27.0883 39.622 24.3656 41.1041 22.8227 43.5738C13.9464 34.2249 11.9476 20.2875 17.8382 8.82073L58.5297 49.7455C52.2463 52.9419 45.0434 53.8418 38.1667 52.29ZM62.8615 50.7943L61.2177 49.1412L18.45 6.11567L16.7992 4.46133L18.45 2.81633L35.8077 20.272C35.8158 20.272 35.8205 20.2872 35.8287 20.293L64.517 49.1493L62.8615 50.7943Z" fill="#212121"/>
<path d="M30.0105 44.3333H30C28.067 44.3304 26.4977 45.895 26.4948 47.8281C26.4918 49.7611 28.0565 51.3304 29.9895 51.3333H30C31.933 51.3362 33.5023 49.7716 33.5053 47.8386C33.5082 45.9055 31.9435 44.3362 30.0105 44.3333ZM30.8272 48.6605C30.6075 48.8789 30.3099 49.0012 30 49C29.3557 48.9966 28.8361 48.4716 28.8395 47.8273C28.8411 47.5189 28.9647 47.2237 29.1833 47.0062C29.4005 46.7902 29.6938 46.6683 30 46.6667C30.6443 46.67 31.1639 47.195 31.1605 47.8393C31.1589 48.1477 31.0353 48.4429 30.8167 48.6605H30.8272Z" fill="#2196F3"/>
</svg>

<svg width="70" height="70" fill="none" xmlns="http://www.w3.org/2000/svg"><path d="M66.974 48.339l-18.47-18.605 2.05-10.097a4.655 4.655 0 001.66.319h.013a4.723 4.723 0 10-4.393-3.14l-10.85 1.325L19.285.35a1.166 1.166 0 00-.823-.35c-.307.002-.6.124-.817.34l-3.309 3.29a1.167 1.167 0 000 1.65l1.78 1.805a32.686 32.686 0 005.512 38.638c.093.09.201.161.32.213a6.77 6.77 0 00-.115 1.197v13.534h-14A5.84 5.84 0 002 66.5v2.333C2 69.478 2.522 70 3.167 70h53.666c.645 0 1.167-.522 1.167-1.167V66.5a5.84 5.84 0 00-5.833-5.833h-14v-5.998a32.88 32.88 0 006.668.7 32.483 32.483 0 0015.4-3.901l1.79 1.8c.217.221.514.347.824.35.306-.002.6-.124.816-.34l3.309-3.29a1.167 1.167 0 000-1.65zM50.582 13.635a2.333 2.333 0 111.645 3.987h-.007a2.333 2.333 0 01-1.633-3.987h-.005zM47.836 21.3l-1.309 6.444-2.571-2.587 3.88-3.857zm-1.325-1.973l-4.2 4.176-3.25-3.267 7.45-.909zM52.167 63a3.5 3.5 0 013.5 3.5v1.167H4.333V66.5a3.5 3.5 0 013.5-3.5h44.334zm-16.334-4.667v2.334H24.167v-2.334h11.666zM24.167 56v-8.867C24.167 44.303 26.783 42 30 42s5.833 2.303 5.833 5.133V56H24.167zm14-3.71v-5.157c0-4.117-3.664-7.466-8.167-7.466a8.312 8.312 0 00-7.177 3.907A30.34 30.34 0 0117.838 8.82L58.53 49.746a30.233 30.233 0 01-20.363 2.544zm24.694-1.496l-1.643-1.653L18.45 6.116 16.8 4.46l1.65-1.645 17.358 17.456c.008 0 .013.015.02.021l28.689 28.856-1.655 1.645z" fill="#212121"/><path d="M30.01 44.333H30a3.5 3.5 0 10-.01 7H30a3.5 3.5 0 00.01-7zm.817 4.328A1.167 1.167 0 1130 46.666a1.166 1.166 0 01.817 1.993h.01z" fill="#2196F3"/></svg>
